icons/gamepad-fill.svg

<svg xmlns="http://www.w3.org/2000/svg" width="24" height="24" fill="none"><g clip-path="url(#a)"><g><path fill="#121212" d="M17 4C18.5913 4 20.1174 4.63214 21.2426 5.75736C22.3679 6.88258 23 8.4087 23 10V14C23 15.5913 22.3679 17.1174 21.2426 18.2426C20.1174 19.3679 18.5913 20 17 20H7C5.4087 20 3.88258 19.3679 2.75736 18.2426C1.63214 17.1174 1 15.5913 1 14V10C1 8.4087 1.63214 6.88258 2.75736 5.75736C3.88258 4.63214 5.4087 4 7 4H17ZM10 9H8V11H6V13H7.999L8 15H10L9.999 13H12V11H10V9ZM18 13H16V15H18V13ZM16 9H14V11H16V9Z"/></g></g><defs><clipPath id="a"><rect width="24" height="24" fill="white"/></clipPath></defs></svg>

<svg width="24" height="24" fill="none" xmlns="http://www.w3.org/2000/svg"><g clip-path="url(#a)"><path d="M17 4a6 6 0 0 1 6 6v4a6 6 0 0 1-6 6H7a6 6 0 0 1-6-6v-4a6 6 0 0 1 6-6h10Zm-7 5H8v2H6v2h1.999L8 15h2l-.001-2H12v-2h-2V9Zm8 4h-2v2h2v-2Zm-2-4h-2v2h2V9Z" /></g><defs><clipPath id="a"><path fill="#fff" d="M0 0h24v24H0z"/></clipPath></defs></svg>
